src/images/svg/symbols/zec-usd.svg

<svg width="33" height="32" viewBox="0 0 33 32" fill="none" xmlns="http://www.w3.org/2000/svg">
<path d="M2.5 11C2.5 6.02944 6.52944 2 11.5 2C16.4706 2 20.5 6.02944 20.5 11C20.5 15.9706 16.4706 20 11.5 20C6.52944 20 2.5 15.9706 2.5 11Z" fill="#F4B728"/>
<path d="M9.89966 13.098V12.41L11.8077 9.82403H9.89966V8.91203H11.1297V8.16003H11.8857V8.91203H13.1157V9.60003L11.2077 12.188H13.1157V13.098H11.8857V13.852H11.1297V13.098H9.89966Z" fill="#231F20"/>
<path fill-rule="evenodd" clip-rule="evenodd" d="M7 11C7 8.51841 9.01841 6.5 11.5 6.5C13.9816 6.5 16 8.51841 16 11C16 13.4816 13.9816 15.5 11.5 15.5C9.01841 15.5 7 13.4816 7 11ZM7.74268 11C7.74268 13.0723 9.42768 14.7573 11.5 14.7573C13.5723 14.7573 15.2573 13.0723 15.2573 11C15.2573 8.92768 13.5723 7.24268 11.5 7.24268C9.42768 7.24268 7.74268 8.92768 7.74268 11Z" fill="#231F20"/>
<path d="M12.5 21C12.5 16.0294 16.5294 12 21.5 12C26.4706 12 30.5 16.0294 30.5 21C30.5 25.9706 26.4706 30 21.5 30C16.5294 30 12.5 25.9706 12.5 21Z" fill="white"/>
<path fill-rule="evenodd" clip-rule="evenodd" d="M21.1193 12C19.386 12.0999 17.7854 12.6903 16.4524 13.6331H26.8383C25.5052 12.6903 23.9046 12.0999 22.1712 12H21.8943H21.1193ZM14.6924 15.2657C14.2798 15.7672 13.9222 16.3149 13.625 16.8987L24.4472 16.8988H29.6657C29.3684 16.3151 29.0111 15.7673 28.5981 15.2658L24.6011 15.2657H14.6924ZM12.5371 20.1809C12.5862 19.6202 12.6875 19.0747 12.8353 18.5483H30.1523C30.3002 19.0746 30.4014 19.6202 30.4507 20.1809H12.5371ZM12.5405 21.8143C12.5926 22.3753 12.6976 22.9208 12.8484 23.4469H30.1394C30.2904 22.9208 30.3952 22.3752 30.4473 21.8143H12.5405ZM14.5792 26.7129C14.1614 26.212 13.7987 25.6642 13.4969 25.08H24.8481L29.4908 25.08C29.1891 25.6643 28.8264 26.212 28.4086 26.7129H24.03L14.5792 26.7129ZM21.1133 29.969L21.1406 29.97L21.1679 29.971C21.2761 29.9749 21.3846 29.9775 21.4938 29.9775C23.4005 29.9775 25.1673 29.3734 26.6223 28.3463L23.7321 28.3462H16.3655C17.723 29.3046 19.3524 29.8945 21.1133 29.969Z" fill="#F44336"/>
<path d="M21.3077 12.0049C16.6988 12.0986 12.9424 15.6572 12.5381 20.1836H21.3078V12.0049H21.3077Z" fill="#283991"/>
<path d="M14.2997 17.0851L14.4367 17.5061H14.8806L14.5215 17.7664L14.6586 18.1877L14.2997 17.9273L13.9408 18.1877L14.0777 17.7664L13.7187 17.5061H14.1626L14.2997 17.0851Z" fill="#EFEFEF"/>
<path d="M14.2997 18.5725L14.4367 18.9938H14.8806L14.5215 19.2541L14.6586 19.6754L14.2997 19.4149L13.9408 19.6754L14.0777 19.2541L13.7187 18.9938H14.1626L14.2997 18.5725Z" fill="#EFEFEF"/>
<path d="M15.7905 14.8534L15.9275 15.2746H16.3713L16.0123 15.5351L16.1493 15.9561L15.7905 15.6959L15.4314 15.9561L15.5685 15.5351L15.2093 15.2746H15.6532L15.7905 14.8534Z" fill="#EFEFEF"/>
<path d="M15.7905 16.3411L15.9275 16.7623H16.3713L16.0123 17.0224L16.1493 17.4438L15.7905 17.1836L15.4314 17.4438L15.5685 17.0224L15.2093 16.7623H15.6532L15.7905 16.3411Z" fill="#EFEFEF"/>
<path d="M15.7905 17.8288L15.9275 18.2501H16.3713L16.0123 18.5101L16.1493 18.9314L15.7905 18.671L15.4314 18.9314L15.5685 18.5101L15.2093 18.2501H15.6532L15.7905 17.8288Z" fill="#EFEFEF"/>
<path d="M13.1678 18.9314L13.0307 18.5101L13.3897 18.2499H12.946L12.9361 18.2192C12.8873 18.3696 12.8433 18.5218 12.8027 18.6756L12.809 18.671L13.1678 18.9314Z" fill="#EFEFEF"/>
<path d="M13.9408 16.7001L14.2996 16.4396L14.6587 16.7001L14.5215 16.2788L14.8805 16.0183H14.4366L14.2995 15.5973L14.1625 16.0183H13.9989C13.9685 16.0642 13.9391 16.1104 13.9096 16.157L14.0777 16.2788L13.9408 16.7001Z" fill="#EFEFEF"/>
<path d="M15.7905 14.2082L16.1493 14.4684L16.0123 14.0474L16.3711 13.787H16.1148C15.8971 13.9494 15.6871 14.1213 15.4853 14.3026L15.4311 14.4684L15.7905 14.2082Z" fill="#EFEFEF"/>
<path d="M16.9223 13.7247L17.2813 13.4643L17.6401 13.7247L17.5031 13.3034L17.8619 13.0432H17.4182L17.3996 12.9865C17.2492 13.0632 17.1004 13.143 16.9549 13.2279L17.0592 13.3034L16.9223 13.7247Z" fill="#EFEFEF"/>
<path d="M17.2813 14.1097L17.4183 14.5306H17.8621L17.5031 14.7911L17.6401 15.2124L17.2813 14.9519L16.9222 15.2124L17.0593 14.7911L16.7002 14.5306H17.1441L17.2813 14.1097Z" fill="#EFEFEF"/>
<path d="M17.2813 15.5974L17.4183 16.0183H17.8621L17.5031 16.2788L17.6401 16.7001L17.2813 16.4396L16.9222 16.7001L17.0593 16.2788L16.7002 16.0183H17.1441L17.2813 15.5974Z" fill="#EFEFEF"/>
<path d="M17.2813 17.0851L17.4183 17.5061H17.8621L17.5031 17.7664L17.6401 18.1877L17.2813 17.9273L16.9222 18.1877L17.0593 17.7664L16.7002 17.5061H17.1441L17.2813 17.0851Z" fill="#EFEFEF"/>
<path d="M17.2813 18.5725L17.4183 18.9938H17.8621L17.5031 19.2541L17.6401 19.6754L17.2813 19.4149L16.9222 19.6754L17.0593 19.2541L16.7002 18.9938H17.1441L17.2813 18.5725Z" fill="#EFEFEF"/>
<path d="M18.7721 13.3658L18.9091 13.7869H19.3529L18.994 14.0474L19.1309 14.4684L18.7721 14.2082L18.4129 14.4684L18.5501 14.0474L18.191 13.7869H18.6349L18.7721 13.3658Z" fill="#EFEFEF"/>
<path d="M18.7721 14.8534L18.9091 15.2746H19.3529L18.994 15.5351L19.1309 15.9561L18.7721 15.6959L18.4129 15.9561L18.5501 15.5351L18.191 15.2746H18.6349L18.7721 14.8534Z" fill="#EFEFEF"/>
<path d="M18.7721 16.3411L18.9091 16.7623H19.3529L18.994 17.0224L19.1309 17.4438L18.7721 17.1836L18.4129 17.4438L18.5501 17.0224L18.191 16.7623H18.6349L18.7721 16.3411Z" fill="#EFEFEF"/>
<path d="M18.7721 17.8288L18.9091 18.2501H19.3529L18.994 18.5101L19.1309 18.9314L18.7721 18.671L18.4129 18.9314L18.5501 18.5101L18.191 18.2501H18.6349L18.7721 17.8288Z" fill="#EFEFEF"/>
<path d="M20.2629 12.6221L20.3999 13.0432H20.8437L20.4847 13.3034L20.6217 13.7247L20.2629 13.4642L19.9038 13.7247L20.0409 13.3034L19.6818 13.0432H20.1256L20.2629 12.6221Z" fill="#EFEFEF"/>
<path d="M20.2629 14.1097L20.3999 14.5306H20.8437L20.4847 14.7911L20.6217 15.2124L20.2629 14.9519L19.9038 15.2124L20.0409 14.7911L19.6818 14.5306H20.1256L20.2629 14.1097Z" fill="#EFEFEF"/>
<path d="M20.2629 15.5974L20.3999 16.0183H20.8437L20.4847 16.2788L20.6217 16.7001L20.2629 16.4396L19.9038 16.7001L20.0409 16.2788L19.6818 16.0183H20.1256L20.2629 15.5974Z" fill="#EFEFEF"/>
<path d="M20.2629 17.0851L20.3999 17.5061H20.8437L20.4847 17.7664L20.6217 18.1877L20.2629 17.9273L19.9038 18.1877L20.0409 17.7664L19.6818 17.5061H20.1256L20.2629 17.0851Z" fill="#EFEFEF"/>
<path d="M20.2629 18.5725L20.3999 18.9938H20.8437L20.4847 19.2541L20.6217 19.6754L20.2629 19.4149L19.9038 19.6754L20.0409 19.2541L19.6818 18.9938H20.1256L20.2629 18.5725Z" fill="#EFEFEF"/>
</svg>

<svg width="33" height="32" fill="none" xmlns="http://www.w3.org/2000/svg"><path d="M2.5 11a9 9 0 1 1 18 0 9 9 0 0 1-18 0Z" fill="#F4B728"/><path d="M9.9 13.098v-.688l1.908-2.586H9.9v-.912h1.23V8.16h.756v.752h1.23V9.6l-1.908 2.588h1.908v.91h-1.23v.754h-.756v-.754H9.9Z" fill="#231F20"/><path fill-rule="evenodd" clip-rule="evenodd" d="M7 11c0-2.482 2.018-4.5 4.5-4.5S16 8.518 16 11s-2.018 4.5-4.5 4.5A4.505 4.505 0 0 1 7 11Zm.743 0a3.76 3.76 0 0 0 3.757 3.757A3.76 3.76 0 0 0 15.257 11 3.76 3.76 0 0 0 11.5 7.243 3.76 3.76 0 0 0 7.743 11Z" fill="#231F20"/><path d="M12.5 21a9 9 0 1 1 18 0 9 9 0 0 1-18 0Z" fill="#fff"/><path fill-rule="evenodd" clip-rule="evenodd" d="M21.12 12c-1.734.1-3.335.69-4.668 1.633h10.386A8.956 8.956 0 0 0 22.171 12H21.12Zm-6.428 3.266a8.985 8.985 0 0 0-1.067 1.633h16.041a8.973 8.973 0 0 0-1.068-1.633H14.692Zm-2.155 4.915c.05-.56.15-1.106.298-1.633h17.317c.148.527.25 1.072.299 1.633H12.537Zm.003 1.633c.053.561.158 1.107.308 1.633H30.14a8.897 8.897 0 0 0 .308-1.633H12.541Zm2.04 4.899a8.99 8.99 0 0 1-1.083-1.633H29.49a8.981 8.981 0 0 1-1.082 1.633H14.58Zm6.533 3.256.028.001.027.001a8.86 8.86 0 0 0 5.454-1.625H16.366a8.859 8.859 0 0 0 4.747 1.623Z" fill="#F44336"/><path d="M21.308 12.005a8.991 8.991 0 0 0-8.77 8.179h8.77v-8.18Z" fill="#283991"/><path d="m14.3 17.085.137.421h.444l-.36.26.138.422-.36-.26-.358.26.137-.422-.36-.26h.445l.137-.42ZM14.3 18.573l.137.42h.444l-.36.261.138.421-.36-.26-.358.26.137-.42-.36-.261h.445l.137-.421ZM15.79 14.853l.138.422h.443l-.359.26.137.421-.359-.26-.359.26.138-.42-.36-.261h.444l.137-.422ZM15.79 16.341l.138.421h.443l-.359.26.137.422-.359-.26-.359.26.138-.422-.36-.26h.444l.137-.42ZM15.79 17.829l.138.421h.443l-.359.26.137.421-.359-.26-.359.26.138-.42-.36-.26h.444l.137-.422ZM13.168 18.931l-.137-.42.359-.261h-.444l-.01-.03c-.049.15-.093.302-.133.456l.006-.005.359.26ZM13.94 16.7l.36-.26.359.26-.138-.421.36-.26h-.444l-.137-.422-.138.421H14l-.09.139.169.122-.137.421ZM15.79 14.208l.36.26-.138-.42.36-.261h-.257a8.941 8.941 0 0 0-.63.516l-.054.165.36-.26ZM16.922 13.725l.36-.26.358.26-.137-.422.359-.26h-.444l-.018-.056c-.15.076-.3.156-.445.24l.104.076-.137.422ZM17.281 14.11l.137.42h.444l-.359.261.137.421-.359-.26-.359.26.137-.42-.359-.261h.444l.137-.421ZM17.281 15.597l.137.421h.444l-.359.26.137.422-.359-.26-.359.26.137-.421-.359-.26h.444l.137-.422ZM17.281 17.085l.137.421h.444l-.359.26.137.422-.359-.26-.359.26.137-.422-.359-.26h.444l.137-.42ZM17.281 18.573l.137.42h.444l-.359.261.137.421-.359-.26-.359.26.137-.42-.359-.261h.444l.137-.421ZM18.772 13.366l.137.42h.444l-.359.261.137.421-.359-.26-.36.26.138-.42-.359-.261h.444l.137-.421ZM18.772 14.853l.137.422h.444l-.359.26.137.421-.359-.26-.36.26.138-.42-.359-.261h.444l.137-.422ZM18.772 16.341l.137.421h.444l-.359.26.137.422-.359-.26-.36.26.138-.422-.359-.26h.444l.137-.42ZM18.772 17.829l.137.421h.444l-.359.26.137.421-.359-.26-.36.26.138-.42-.359-.26h.444l.137-.422ZM20.263 12.622l.137.421h.444l-.36.26.138.422-.36-.26-.358.26.137-.422-.36-.26h.445l.137-.42ZM20.263 14.11l.137.42h.444l-.36.261.138.421-.36-.26-.358.26.137-.42-.36-.261h.445l.137-.421ZM20.263 15.597l.137.421h.444l-.36.26.138.422-.36-.26-.358.26.137-.421-.36-.26h.445l.137-.422ZM20.263 17.085l.137.421h.444l-.36.26.138.422-.36-.26-.358.26.137-.422-.36-.26h.445l.137-.42ZM20.263 18.573l.137.42h.444l-.36.261.138.421-.36-.26-.358.26.137-.42-.36-.261h.445l.137-.421Z" fill="#EFEFEF"/></svg>
